X: 1
T: Lady MacKenzie of Coul
M: C
L: 1/8
R: strathspey, shottish
S: Surenne -- Dance Music of Scotland, pgs. 154-155  (1852)
Z: AK/Fiddler's Companion
K: C
E/F/ |\
"C"G>A G>c "F"A<F F>d | "G7"B<G G>B "C"c/d/e/f/ "G7"g2 |\
"C"G>A G>c "F"A<F F>c | "G7"B/c/d/B/ G>B "C"c3 :|
f |\
"C"e<g g2 "F"a>f "G7"d>f | "C"e>g c>e "Dm"d/c/B/A/ "G7"G>f |\
"C"e<g g2 "F"a>f "Dm"d>f | "C"e<g "G7"B/c/d/B/ "C"c3 ||
f |\
"C"e<g g2 "F"a>f "G7"d>f | "C"e<g "Am"c<e "Dm"d/c/B/A/ "G7"G2  |\
"C"c2 G>E "F"F>A "Dm"D>f | "C"f/e/d/c/ "G7"e/d/c/B/ "C"c3 |]
